X: 775
T: Gam Çekme Güzel
C: Ârif Sâmi Toker
O: Turkey
F: http://compmusic.upf.edu/node/140
N: acemasiran--sarki--kapali_curcuna--gam_cekme_guzel--arif_sami_toker
N: makam= acemasiran
N: form= sarki
N: usul= kapali_curcuna = 10/8
M: 10/8
L: 1/16
K: C _B   
Q: 1/4=228
%%MIDI tuningsystem comma53
f6f4f4g2 f2e2  | e8-e2e4f2 e2d2  | d6d4d4e2 d2c2  | c16-c4  | \
w:  ARANAĞME  |   |   |   | 
b8-b2b4a2 g2f2  | 
w:   | 
a8-a2a4g2 f2e2  | g14c2 d2e2  | f4 a2g2 f2f2 e2f6  | \
w:   |   |   | 
f2e2 g2f2 e2e2 d2f2 e2d2  | 
w:   | 
d2c2 e2d2 c2B2 A2d6  | d2c2 e2d2 c2c2 B2d2 c2B2  | \
w:   |   | 
B2A2 c2B2 A2B3AG6  | 
w:   | 
A4 G2F4E2 F2G4F2  | F4 A2c2 f2a3gf6  | \
w:   |   | 
f2e2 g2f2 e2e2 d2f2 e2d2  | 
w:   | 
d2c2 e2d2 c2B2 A2d6  | d2c2 e2d2 c2c2 B2d2 c2B2  | \
w:   |   | 
B2A2 c2B2 A2B3AG6  | 
w:   | 
A4 G2F4E2 F2G4F2  | F18z2  | f14f4e2  | \
w:   |   |  Gam  | 
e14e4d2  | d14e2 d2c2  | c18z2  | 
w:  çek  |  me *  *  gü  |  zel  | 
A6B4c4d6  | A6G4A2 G2F2 E2G2  | F14A2 c2f2  | \
w:  n'ol sa ba ha  |  rın so nu *  yaz  |  dır SAZ  | 
a14g2 f2e2  | g14f2 e2d2  | 
w:   |   | 
f14e2 d2c2  | c4 d2e2 f2e2 g2f6  | f14f4e2  | \
w:   |   |  Gam  | 
e14e4d2  | d14e2 d2c2  | 
w:  çek  |  me *  *  gü  | 
c18z2  | c4 b2b2 a2a2 g2g4f2  | e4 f2e2 f2d4a2 g2f2  | \
w:  zel  |  n'ol *  sa *  ba *  ha  |  rın *  so *  nu yaz  | 
e4 f16  | a14g2 f2e2  | 
w:  dır  |   | 
g14f2 e2d2  | f14e2 d2c2  | c4 d2e2 f2e2 g2f6  | \
w:   |   |   | 
g14g2 ^3/4f2_7/8e2  | d14e2 d2c2  | 
w:  Sev  |  da *  *  la  | 
c14d2 c2B2  | B16-B4  | A6B4c4d4G2  | G18z2  | \
w:  rın  |   |  en coş tu ğu  |  yer  | 
A6G4A2 G2F2 E2F2  | f8-f2f2 e2g2 e2d2  | 
w:  şim di Bo *  ğaz  |  dır  | 
e2d2 f2d2 c2d2 c2e2 c2B2  | c2B2 d2B2 A2B3AG4z2  | \
w:   |   | 
A4 G2G2 F2E2 F2G4F2  | 
w:  şim *  di *  Bo *  ğaz  | 
F14A2 c2f2  | a14g2 f2e2  | g14f2 e2d2  | \
w:  dır SAZ  |   |   | 
f14e2 d2c2  | c4 d2e2 f2e2 g2f6  | 
w:   |   | 
g14g2 ^3/4f2_7/8e2  | d14e2 d2c2  | c14d2 c2B2  | B16-B4  | \
w:  Sev  |  da *  *  la  |  rın  |   | 
A6B4c4d4G2  | G18z2  | 
w:  en coş tu ğu  |  yer  | 
A6G4A2 G2F2 E2F2  | f8-f2f2 e2g2 e2d2  | \
w:  şim di Bo *  ğaz  |  dır  | 
e2d2 f2d2 c2d2 c2e2 c2B2  | 
w:   | 
c2B2 d2B2 A2B3AG4z2  | A4 G2G2 F2E2 F2G4F2  | \
w:   |  şim *  di *  Bo *  ğaz  | 
F18z2  | c6_3/4d4c2 d2c2 _2/4B2A2  | 
w:  dır  |  SAZ  | 
_2/4B6c4B2 c2B2 A2G2  | A2_2/4B2 c2_3/4d2 e2f2 e2d2 c2B2  | c16-c4  | \
w:   |   |   | 
_2/4B6c4c_3/4d cBc6  | 
w:  Tek *  rar  | 
c6_3/4d2 e2d2 c2_2/4B4z2  | c6_3/4d4e4f6  | \
w:  e di *  yor  |  söy le di ğim  | 
g4 f2e4f4e2 f2g2  | g16-g4  | g6g4g2 f2e2 f2g2  | 
w:  şar *  kı yı dağ  |  lar  |   | 
_7/8a14g2 f2e2  | g14f2 e2_3/4d2  | f14e2 _3/4d2c2  | \
w:  Ah  |  ah  |  ah   | 
e14_3/4d2 c2_2/4B2  | c6_2/4d2 e2f2 e2d2 c2_2/4B2  | 
w:  ah  |  şar kı *  yı *  dağ  | 
c16-c4  | a14g2 f2e2  | g14f2 e2d2  | f14e2 d2c2  | \
w:  lar  |   |   |   | 
c4 d2e2 f2e2 g2f6  | 
w:   | 
g14g2 ^3/4f2_7/8e2  | d14e2 d2c2  | c14d2 c2B2  | B16-B4  | \
w:  Sev  |  da *  *  la  |  rın  |   | 
A6B4c4d4G2  | G18z2  | 
w:  en coş tu ğu  |  yer  | 
A6G4A2 G2F2 E2F2  | f8-f2f2 e2g2 e2d2  | \
w:  şim di Bo *  ğaz  |  dır  | 
e2d2 f2d2 c2d2 c2e2 c2B2  | 
w:   | 
c2B2 d2B2 A2B3AG4z2  | A4 G2G2 F2E2 F2G4F2  | \
w:   |  şim *  di *  Bo *  ğaz  | 
F14A2 c2f2  | 
w:  dır SAZ  | 
a14g2 f2e2  | g14f2 e2d2  | f14e2 d2c2  | \
w:   |   |   | 
c4 d2e2 f2e2 g2f6  | g14g2 ^3/4f2_7/8e2  | 
w:   |  Sev  | 
d14e2 d2c2  | c14d2 c2B2  | B16-B4  | A6B4c4d4G2  | \
w:  da *  *  la  |  rın  |   |  en coş tu ğu  | 
G18z2  | A6G4A2 G2F2 E2F2  | 
w:  yer  |  şim di Bo *  ğaz  | 
f8-f2f2 e2g2 e2d2  | e2d2 f2d2 c2d2 c2e2 c2B2  | \
w:  dır  |   | 
c2B2 d2B2 A2B3AG4z2  | 
w:   | 
A4 G2G2 F2E2 F2G4F2  | F18z2  | |


